icons/svg/16x16/mail/filled.svg

<svg xmlns="http://www.w3.org/2000/svg" width="16" height="16" viewBox="0 0 16 16">
  <path fill-rule="evenodd" d="M10.2061,9.4081 L8.0001,11.0621 L5.7941,9.4081 L1.4091,13.7931 C1.7821,14.1071 2.2301,14.3391 2.7281,14.4441 C3.9901,14.7111 5.8511,15.0001 8.0001,15.0001 C10.0981,15.0001 11.9211,14.7241 13.1811,14.4631 C13.7061,14.3541 14.1761,14.1041 14.5601,13.7621 L10.2061,9.4081 Z M0.1851,5.2011 C0.0781,5.9921 0.0001,6.9131 0.0001,8.0001 C0.0001,9.8041 0.2041,11.2011 0.4271,12.1921 C0.4371,12.2391 0.4561,12.2831 0.4691,12.3301 L4.4201,8.3781 L0.1851,5.2011 Z M16.0001,8.0001 C16.0001,7.0461 15.8941,6.1021 15.7561,5.2451 L11.5801,8.3781 L15.4651,12.2621 C15.4691,12.2431 15.4771,12.2251 15.4821,12.2061 C15.7381,11.0721 16.0001,9.5361 16.0001,8.0001 L16.0001,8.0001 Z M0.5671,3.3631 C0.9341,2.4461 1.7401,1.7651 2.7281,1.5551 C3.9901,1.2891 5.8511,1.0001 8.0001,1.0001 C10.0981,1.0001 11.9211,1.2751 13.1811,1.5371 C14.1931,1.7471 15.0121,2.4621 15.3661,3.4131 L8.0001,8.9371 L0.5671,3.3631 Z"/>
</svg>

<svg width="16" height="16" fill="none" xmlns="http://www.w3.org/2000/svg">
  <path fill-rule="evenodd" clip-rule="evenodd" d="M10.206 9.408L8 11.062 5.794 9.408 1.41 13.793c.373.314.821.546 1.32.651C3.99 14.711 5.85 15 8 15c2.098 0 3.921-.276 5.181-.537a2.988 2.988 0 001.38-.7l-4.355-4.355zM.186 5.201A20.67 20.67 0 000 8.001c0 1.803.204 3.2.427 4.191.01.047.03.091.042.138L4.42 8.378.185 5.201zM16 8.001c0-.955-.106-1.899-.244-2.756L11.58 8.378l3.885 3.884c.004-.019.012-.037.017-.056C15.738 11.072 16 9.536 16 8zM.567 3.362a2.99 2.99 0 012.161-1.808A25.896 25.896 0 018 1c2.098 0 3.921.275 5.181.537a2.976 2.976 0 012.185 1.876L8 8.937.567 3.363z" fill="#000"/>
</svg>
